X:1
T:Low Bridge, Everybody Down
M:4/4
L:1/8
K:G
 B2| E E3 G2 GG| A A3 B4| B B3 B2 EF| GE F E3| B3/2 B/2| E E3 G2 GG|\
 A A3 B4| B B3 B2 EF| GE F E3| B2| d2 B2 d2 B2| d B3 A4| B2 G2 B2 G2|\
 B G3 F2| B2| E E3 G2 G2| A2 AA B2 B2| B2 B B3E-F|G-E F E3| D2| B4 B4|\
 B3/2 A/2 B3/2 G/2 A4| B4 B2 G3/2 A/2| B3/2 G/2 A3/2 F/2 G2| B3/2 c/2|\
 d3/2 B/2 d3/2 B/2 c c2 c| d3/2 B/2 d3/2 B/2 c2 c3/2 c/2| B3/2 A/2 B3/2 G/2 c3/2 B/2 c3/2 A/2|\
 B3/2 G/2 A2 G2||
